docs/.gitbook/assets/icon-thumbs-down-16@light.svg

<svg width="32" height="32" viewBox="0 0 16 16" fill="none" xmlns="http://www.w3.org/2000/svg">
<rect x="0" y="0" width="16" height="16" fill="#fff"/>
<path fill-rule="evenodd" clip-rule="evenodd" d="M8.95249 14.9673C9.72269 15.0466 10.2635 14.4194 10.2954 13.7833C10.3257 13.1792 10.4218 12.104 10.7181 11.0469C10.8417 10.6058 10.9933 10.1931 11.1752 9.82764C11.4882 10.5234 12.1875 11.0079 13 11.0079C14.1046 11.0079 15 10.1124 15 9.00787V4.00787C15 2.9033 14.1046 2.00787 13 2.00787C12.4002 2.00787 11.862 2.27194 11.4954 2.69017C11.4401 2.65072 11.3825 2.61328 11.3225 2.57803C9.82888 1.70037 6.4327 0.165799 2.60037 1.56277C1.55233 1.9448 1 2.96912 1 3.96791V3.97674V3.98556V3.99439V4.00323V4.01206V4.0209V4.02975V4.03859V4.04744V4.0563V4.06515V4.07401V4.08288V4.09174V4.10061V4.10948V4.11836V4.12724V4.13612V4.14501V4.1539V4.16279V4.17169V4.18058V4.18949V4.19839V4.2073V4.21621V4.22512V4.23404V4.24296V4.25188V4.2608V4.26973V4.27866V4.2876V4.29653V4.30547V4.31442V4.32336V4.33231V4.34126V4.35021V4.35917V4.36813V4.37709V4.38605V4.39502V4.40399V4.41296V4.42193V4.43091V4.43989V4.44887V4.45785V4.46684V4.47583V4.48482V4.49381V4.50281V4.51181V4.52081V4.52981V4.53882V4.54783V4.55684V4.56585V4.57486V4.58388V4.5929V4.60192V4.61094V4.61997V4.629V4.63802V4.64706V4.65609V4.66513V4.67416V4.6832V4.69224V4.70129V4.71033V4.71938V4.72843V4.73748V4.74653V4.75559V4.76464V4.7737V4.78276V4.79182V4.80089V4.80995V4.81902V4.82809V4.83716V4.84623V4.8553V4.86438V4.87346V4.88253V4.89161V4.90069V4.90978V4.91886V4.92795V4.93703V4.94612V4.95521V4.9643V4.97339V4.98249V4.99158V5.00068V5.00978V5.01888V5.02798V5.03708V5.04618V5.05528V5.06439V5.0735V5.0826V5.09171V5.10082V5.10993V5.11904V5.12816V5.13727V5.14638V5.1555V5.16461V5.17373V5.18285V5.19197V5.20109V5.21021V5.21933V5.22845V5.23758V5.2467V5.25582V5.26495V5.27408V5.2832V5.29233V5.30146V5.31059V5.31972V5.32885V5.33798V5.34711V5.35624V5.36537V5.3745V5.38364V5.39277V5.4019V5.41104V5.42017V5.42931V5.43844V5.44758V5.45671V5.46585V5.47499V5.48412V5.49326V5.5024V5.51153V5.52067V5.52981V5.53895V5.54808V5.55722V5.56636V5.5755V5.58464V5.59378V5.60291V5.61205V5.62119V5.63033V5.63946V5.6486V5.65774V5.66688V5.67602V5.68515V5.69429V5.70343V5.71256V5.7217V5.73084V5.73997V5.74911V5.75824V5.76738V5.77651V5.78564V5.79478V5.80391V5.81304V5.82217V5.83131V5.84044V5.84957V5.8587V5.86783V5.87696V5.88608V5.89521V5.90434V5.91346V5.92259V5.93171V5.94084V5.94996V5.95908V5.96821V5.97733V5.98645V5.99557V6.00468V6.0138V6.02292V6.03203V6.04115V6.05026V6.05937V6.06849V6.0776V6.08671V6.09582V6.10492V6.11403V6.12313V6.13224V6.14134V6.15044V6.15954V6.16864V6.17774V6.18684V6.19593V6.20503V6.21412V6.22321V6.2323V6.24139V6.25048V6.25956V6.26865V6.27773V6.28681V6.29589V6.30497V6.31405V6.32312V6.3322V6.34127V6.35034V6.35941V6.36847V6.37754V6.3866V6.39567V6.40473V6.41378V6.42284V6.4319V6.44095V6.45V6.45905V6.4681V6.47714V6.48619V6.49523V6.50427V6.51331V6.52234V6.53138V6.54041V6.54944V6.55847V6.56749V6.57652V6.58554V6.59456V6.60357V6.61259V6.6216V6.63061V6.63962V6.64863V6.65763V6.66663V6.67563V6.68463V6.69362V6.70261V6.7116V6.72059V6.72957V6.73856V6.74754V6.75651V6.76549V6.77446V6.78343V6.7924V6.80136V6.81032V6.81928V6.82824V6.83719V6.84614V6.85509V6.86404V6.87298V6.88192V6.89086V6.89979V6.90872V6.91765V6.92658V6.9355V6.94442V6.95334V6.96225V6.97116V6.98007V6.98898V6.99788V7.00678V7.01567V7.02456V7.03345V7.04234V7.05122V7.0601V7.06898V7.07786V7.08673V7.09559V7.10446V7.11332V7.12218V7.13103V7.13988V7.14873V7.15757V7.16641V7.17525V7.18408V7.19291V7.20174V7.21056V7.21938V7.2282V7.23701V7.24582V7.25463V7.26343V7.27222V7.28102V7.28981V7.2986V7.30738V7.31616V7.32494V7.33371V7.34248V7.35124V7.36V7.36876V7.37751V7.38626V7.395V7.40374V7.41248V7.42121V7.42994V7.43867V7.44739V7.45611V7.46482V7.47353V7.48223V7.49093V7.49963V7.50832V7.51701V7.52569V7.53437V7.54305V7.55172V7.56038V7.56905V7.5777V7.58636V7.59501V7.60365V7.61229V7.62093V7.62956V7.63819V7.64681V7.65543V7.66404V7.67265V7.68125V7.68985V7.69845V7.70704V7.71563V7.72421V7.73278V7.74136V7.74992V7.75848V7.76704V7.7756V7.78414V7.79269V7.80122V7.80976V7.81829V7.82681V7.83533V7.84384V7.85235V7.86085V7.86935V7.87785V7.88634V7.89482V7.9033V7.91177V7.92024V7.9287V7.93716V7.94561V7.95406V7.9625V7.97094V7.97937V7.9878V7.99622V8.00464V8.01305V8.02145V8.02985V8.03825V8.04664V8.05502V8.0634V8.07177V8.08014V8.0885V8.09685V8.10521V8.11355V8.12189V8.13022V8.13855V8.14687V8.15519V8.1635V8.17181V8.18011V8.1884V8.19669V8.20497V8.21325V8.22152V8.22978V8.23804V8.24629V8.25454V8.26278V8.27102V8.27925V8.28747V8.29569V8.3039V8.31211V8.3203V8.3285V8.33668V8.34486V8.35304V8.36121V8.36937V8.37753V8.38568V8.39382V8.40196V8.41009V8.41821V8.42633V8.43444V8.44255V8.45065V8.45874V8.46683V8.47491V8.48298V8.49105V8.49911V8.50716C1 9.86551 2.01526 11.1029 3.46116 11.1676C4.31934 11.206 4.95487 11.1685 5.41556 11.1174C5.36231 12.125 5.63947 12.9758 6.1927 13.6323C6.88867 14.4581 7.92577 14.8617 8.95249 14.9673ZM12.5 7.96866C12.5002 7.06361 12.5001 5.66094 12.5001 4.72639C12.5001 4.71935 12.5001 4.7123 12.5 4.70526V4.00787C12.5 3.73173 12.7239 3.50787 13 3.50787C13.2761 3.50787 13.5 3.73173 13.5 4.00787V9.00787C13.5 9.28401 13.2761 9.50787 13 9.50787C12.7239 9.50787 12.5 9.28401 12.5 9.00787V7.96866ZM11 4.71178C10.9956 4.32695 10.8209 4.02308 10.5625 3.87128C9.20659 3.0745 6.31468 1.80537 3.11408 2.97206C2.76416 3.09961 2.5 3.47877 2.5 3.96791V3.97674V3.98556V3.99439V4.00323V4.01206V4.0209V4.02975V4.03859V4.04744V4.0563V4.06515V4.07401V4.08288V4.09174V4.10061V4.10948V4.11836V4.12724V4.13612V4.14501V4.1539V4.16279V4.17169V4.18058V4.18949V4.19839V4.2073V4.21621V4.22512V4.23404V4.24296V4.25188V4.2608V4.26973V4.27866V4.2876V4.29653V4.30547V4.31442V4.32336V4.33231V4.34126V4.35021V4.35917V4.36813V4.37709V4.38605V4.39502V4.40399V4.41296V4.42193V4.43091V4.43989V4.44887V4.45785V4.46684V4.47583V4.48482V4.49381V4.50281V4.51181V4.52081V4.52981V4.53882V4.54783V4.55684V4.56585V4.57486V4.58388V4.5929V4.60192V4.61094V4.61997V4.629V4.63802V4.64706V4.65609V4.66513V4.67416V4.6832V4.69224V4.70129V4.71033V4.71938V4.72843V4.73748V4.74653V4.75559V4.76464V4.7737V4.78276V4.79182V4.80089V4.80995V4.81902V4.82809V4.83716V4.84623V4.8553V4.86438V4.87346V4.88253V4.89161V4.90069V4.90978V4.91886V4.92795V4.93703V4.94612V4.95521V4.9643V4.97339V4.98249V4.99158V5.00068V5.00978V5.01888V5.02798V5.03708V5.04618V5.05528V5.06439V5.0735V5.0826V5.09171V5.10082V5.10993V5.11904V5.12816V5.13727V5.14638V5.1555V5.16461V5.17373V5.18285V5.19197V5.20109V5.21021V5.21933V5.22845V5.23758V5.2467V5.25582V5.26495V5.27408V5.2832V5.29233V5.30146V5.31059V5.31972V5.32885V5.33798V5.34711V5.35624V5.36537V5.3745V5.38364V5.39277V5.4019V5.41104V5.42017V5.42931V5.43844V5.44758V5.45671V5.46585V5.47499V5.48412V5.49326V5.5024V5.51153V5.52067V5.52981V5.53895V5.54808V5.55722V5.56636V5.5755V5.58464V5.59378V5.60291V5.61205V5.62119V5.63033V5.63946V5.6486V5.65774V5.66688V5.67602V5.68515V5.69429V5.70343V5.71256V5.7217V5.73084V5.73997V5.74911V5.75824V5.76738V5.77651V5.78564V5.79478V5.80391V5.81304V5.82217V5.83131V5.84044V5.84957V5.8587V5.86783V5.87696V5.88608V5.89521V5.90434V5.91346V5.92259V5.93171V5.94084V5.94996V5.95908V5.96821V5.97733V5.98645V5.99557V6.00468V6.0138V6.02292V6.03203V6.04115V6.05026V6.05937V6.06849V6.0776V6.08671V6.09582V6.10492V6.11403V6.12313V6.13224V6.14134V6.15044V6.15954V6.16864V6.17774V6.18684V6.19593V6.20503V6.21412V6.22321V6.2323V6.24139V6.25048V6.25956V6.26865V6.27773V6.28681V6.29589V6.30497V6.31405V6.32312V6.3322V6.34127V6.35034V6.35941V6.36847V6.37754V6.3866V6.39567V6.40473V6.41378V6.42284V6.4319V6.44095V6.45V6.45905V6.4681V6.47714V6.48619V6.49523V6.50427V6.51331V6.52234V6.53138V6.54041V6.54944V6.55847V6.56749V6.57652V6.58554V6.59456V6.60357V6.61259V6.6216V6.63061V6.63962V6.64863V6.65763V6.66663V6.67563V6.68463V6.69362V6.70261V6.7116V6.72059V6.72957V6.73856V6.74754V6.75651V6.76549V6.77446V6.78343V6.7924V6.80136V6.81032V6.81928V6.82824V6.83719V6.84614V6.85509V6.86404V6.87298V6.88192V6.89086V6.89979V6.90872V6.91765V6.92658V6.9355V6.94442V6.95334V6.96225V6.97116V6.98007V6.98898V6.99788V7.00678V7.01567V7.02456V7.03345V7.04234V7.05122V7.0601V7.06898V7.07786V7.08673V7.09559V7.10446V7.11332V7.12218V7.13103V7.13988V7.14873V7.15757V7.16641V7.17525V7.18408V7.19291V7.20174V7.21056V7.21938V7.2282V7.23701V7.24582V7.25463V7.26343V7.27222V7.28102V7.28981V7.2986V7.30738V7.31616V7.32494V7.33371V7.34248V7.35124V7.36V7.36876V7.37751V7.38626V7.395V7.40374V7.41248V7.42121V7.42994V7.43867V7.44739V7.45611V7.46482V7.47353V7.48223V7.49093V7.49963V7.50832V7.51701V7.52569V7.53437V7.54305V7.55172V7.56038V7.56905V7.5777V7.58636V7.59501V7.60365V7.61229V7.62093V7.62956V7.63819V7.64681V7.65543V7.66404V7.67265V7.68125V7.68985V7.69845V7.70704V7.71563V7.72421V7.73278V7.74136V7.74992V7.75848V7.76704V7.7756V7.78414V7.79269V7.80122V7.80976V7.81829V7.82681V7.83533V7.84384V7.85235V7.86085V7.86935V7.87785V7.88634V7.89482V7.9033V7.91177V7.92024V7.9287V7.93716V7.94561V7.95406V7.9625V7.97094V7.97937V7.9878V7.99622V8.00464V8.01305V8.02145V8.02985V8.03825V8.04664V8.05502V8.0634V8.07177V8.08014V8.0885V8.09685V8.10521V8.11355V8.12189V8.13022V8.13855V8.14687V8.15519V8.1635V8.17181V8.18011V8.1884V8.19669V8.20497V8.21325V8.22152V8.22978V8.23804V8.24629V8.25454V8.26278V8.27102V8.27925V8.28747V8.29569V8.3039V8.31211V8.3203V8.3285V8.33668V8.34486V8.35304V8.36121V8.36937V8.37753V8.38568V8.39382V8.40196V8.41009V8.41821V8.42633V8.43444V8.44255V8.45065V8.45874V8.46683V8.47491V8.48298V8.49105V8.49911V8.50716C2.5 9.15364 2.97126 9.64417 3.52819 9.66909C4.61088 9.71752 5.27345 9.63204 5.65318 9.57201C5.67612 9.56838 5.74491 9.5571 5.80667 9.54698L5.80747 9.54685L5.91592 9.52915C5.98202 9.51878 6.08778 9.5026 6.19072 9.50183L6.19499 9.50179C6.25768 9.50108 6.59389 9.49728 6.8409 9.78081C7.11184 10.0918 7.02844 10.4518 7.01309 10.518L7.01272 10.5196C6.76657 11.5837 6.98859 12.249 7.3397 12.6657C7.6636 13.05 8.17815 13.3184 8.81355 13.4339C8.86038 12.7478 8.97757 11.6986 9.27374 10.642C9.57131 9.58047 10.0833 8.38719 11 7.6V4.71178Z" fill="#000"/>
</svg>

<svg xmlns="http://www.w3.org/2000/svg" width="32" height="32" fill="none" viewBox="0 0 16 16"><path fill="#fff" d="M0 0h16v16H0z"/><path fill="#000" fill-rule="evenodd" d="M8.952 14.967c.77.08 1.312-.548 1.343-1.184.03-.604.127-1.679.423-2.736.124-.441.275-.854.457-1.22A2 2 0 0 0 15 9.008v-5a2 2 0 0 0-3.505-1.317 2 2 0 0 0-.172-.112C9.829 1.7 6.433.166 2.6 1.563 1.552 1.945 1 2.969 1 3.968v4.539c0 1.359 1.015 2.596 2.461 2.66.858.039 1.494.002 1.955-.05-.054 1.008.223 1.859.777 2.515.696.826 1.733 1.23 2.76 1.335M12.5 7.97V4.008a.5.5 0 0 1 1 0v5a.5.5 0 0 1-1 0zM11 4.712c-.004-.385-.18-.689-.437-.84-1.356-.797-4.248-2.067-7.449-.9-.35.128-.614.507-.614.996v4.539c0 .647.471 1.137 1.028 1.162 1.083.049 1.745-.037 2.125-.097l.154-.025.109-.018a2 2 0 0 1 .275-.027h.004a.84.84 0 0 1 .646.279c.27.31.187.67.172.737v.002c-.246 1.064-.024 1.729.327 2.146.324.384.838.652 1.474.768a14 14 0 0 1 .46-2.792C9.57 9.58 10.084 8.387 11 7.6z" clip-rule="evenodd"/></svg>
